X: 65
T:A Souldiers life
M:6/8
L:1/8
Q:110
R:Jig
K:D
d|f>ga f>ed|e2c A2e|f>ga d>ed|e3-e2  e|f>ga f>ed|e2c A>GF|GAB A>Bc|d3-d2
||

